build/img/icon-phone.svg

<svg width="18" height="18" viewBox="0 0 18 18" fill="none" xmlns="http://www.w3.org/2000/svg">
  <path d="M18 13.42V16.956C18.0001 17.2092 17.9042 17.453 17.7316 17.6382C17.559 17.8234 17.3226 17.9363 17.07 17.954C16.633 17.984 16.276 18 16 18C7.163 18 0 10.837 0 2C0 1.724 0.015 1.367 0.046 0.93C0.0637224 0.677444 0.176581 0.441011 0.361804 0.268409C0.547026 0.0958068 0.790823 -0.000114433 1.044 2.56579e-07H4.58C4.70404 -0.000125334 4.8237 0.045859 4.91573 0.12902C5.00776 0.212182 5.0656 0.326583 5.078 0.45C5.101 0.68 5.122 0.863 5.142 1.002C5.34073 2.38892 5.748 3.73783 6.35 5.003C6.445 5.203 6.383 5.442 6.203 5.57L4.045 7.112C5.36445 10.1865 7.81455 12.6365 10.889 13.956L12.429 11.802C12.4919 11.714 12.5838 11.6509 12.6885 11.6237C12.7932 11.5964 12.9042 11.6068 13.002 11.653C14.267 12.2539 15.6156 12.6601 17.002 12.858C17.141 12.878 17.324 12.9 17.552 12.922C17.6752 12.9346 17.7894 12.9926 17.8724 13.0846C17.9553 13.1766 18.0002 13.2961 18 13.42Z" fill="#011C40"/>
</svg>

<svg width="18" height="18" fill="none" xmlns="http://www.w3.org/2000/svg"><path d="M18 13.42v3.536a1 1 0 01-.93.998c-.437.03-.794.046-1.07.046C7.163 18 0 10.837 0 2c0-.276.015-.633.046-1.07A1 1 0 011.044 0H4.58a.5.5 0 01.498.45c.023.23.044.413.064.552A13.9 13.9 0 006.35 5.003c.095.2.033.439-.147.567L4.045 7.112a13.047 13.047 0 006.844 6.844l1.54-2.154a.462.462 0 01.573-.149 13.9 13.9 0 004 1.205c.139.02.322.042.55.064a.5.5 0 01.448.498z" fill="#011C40"/></svg>
